symbols/web/new_label/materialsymbolssharp/new_label_wght300grad200fill1_24px.svg

<svg xmlns="http://www.w3.org/2000/svg" height="24" width="24"><path d="M12.475 19.25v-6.7H9.45v-3H2.675v-4.8H16.2L21.325 12l-5.15 7.25Zm-7.55.825v-3h-3v-2.15h3v-3h2.15v3h3v2.15h-3v3Z"/></svg>

<svg xmlns="http://www.w3.org/2000/svg" height="24" width="24"><path d="M12.475 19.25V12.55H9.45V9.55H2.675V4.75H16.2L21.325 12L16.175 19.25ZM4.925 20.075V17.075H1.925V14.925H4.925V11.925H7.075V14.925H10.075V17.075H7.075V20.075Z"/></svg>
